flaticon/gastronomy/coffee-3.svg

<svg xmlns="http://www.w3.org/2000/svg" width="32" height="32" viewBox="0 0 24 24">
    <path d="M 19.191406 4.335938 C 19.25 4.1875 19.285156 4.027344 19.285156 3.855469 L 19.285156 3.429688 C 19.285156 2.71875 18.707031 2.144531 18 2.144531 L 10.527344 2.144531 L 9.367188 0.207031 C 9.289062 0.078125 9.152344 0 9 0 L 7.285156 0 C 7.050781 0 6.855469 0.191406 6.855469 0.429688 L 6.855469 2.144531 L 6 2.144531 C 5.292969 2.144531 4.714844 2.71875 4.714844 3.429688 L 4.714844 3.855469 C 4.714844 4.027344 4.75 4.1875 4.808594 4.335938 C 4.261719 4.484375 3.855469 4.980469 3.855469 5.570312 L 3.855469 8.144531 C 3.855469 8.851562 4.433594 9.429688 5.144531 9.429688 L 5.21875 9.429688 L 5.476562 10.714844 L 5.144531 10.714844 C 5.023438 10.714844 4.90625 10.765625 4.824219 10.855469 C 4.742188 10.945312 4.703125 11.066406 4.714844 11.1875 L 5.574219 19.757812 C 5.59375 19.976562 5.78125 20.144531 6 20.144531 L 6.449219 20.144531 L 6.859375 23.621094 C 6.886719 23.835938 7.070312 24 7.285156 24 L 17.144531 24 C 17.363281 24 17.542969 23.835938 17.570312 23.617188 L 17.953125 20.144531 L 18.429688 20.144531 C 18.65625 20.144531 18.84375 19.964844 18.855469 19.734375 L 19.285156 11.164062 C 19.292969 11.046875 19.25 10.933594 19.167969 10.847656 C 19.085938 10.761719 18.972656 10.714844 18.855469 10.714844 L 18.523438 10.714844 L 18.78125 9.429688 L 18.855469 9.429688 C 19.566406 9.429688 20.144531 8.851562 20.144531 8.144531 L 20.144531 5.570312 C 20.144531 4.980469 19.738281 4.484375 19.191406 4.335938 Z M 7.714844 0.855469 L 8.757812 0.855469 L 9.527344 2.144531 L 7.714844 2.144531 Z M 5.570312 3.429688 C 5.570312 3.191406 5.765625 3 6 3 L 18 3 C 18.234375 3 18.429688 3.191406 18.429688 3.429688 L 18.429688 3.855469 C 18.429688 4.09375 18.234375 4.285156 18 4.285156 L 6 4.285156 C 5.765625 4.285156 5.570312 4.09375 5.570312 3.855469 Z M 16.757812 23.144531 L 7.667969 23.144531 L 7.3125 20.144531 L 17.09375 20.144531 Z M 18.019531 19.285156 L 6.386719 19.285156 L 5.617188 11.570312 L 18.40625 11.570312 Z M 17.648438 10.714844 L 6.351562 10.714844 L 6.09375 9.429688 L 17.90625 9.429688 Z M 19.285156 8.144531 C 19.285156 8.378906 19.09375 8.570312 18.855469 8.570312 L 5.144531 8.570312 C 4.90625 8.570312 4.714844 8.378906 4.714844 8.144531 L 4.714844 5.570312 C 4.714844 5.335938 4.90625 5.144531 5.144531 5.144531 L 18.855469 5.144531 C 19.09375 5.144531 19.285156 5.335938 19.285156 5.570312 Z M 19.285156 8.144531"/>
    <path d="M 12 12.429688 C 9.597656 12.429688 7.714844 13.746094 7.714844 15.429688 C 7.714844 17.109375 9.597656 18.429688 12 18.429688 C 14.402344 18.429688 16.285156 17.109375 16.285156 15.429688 C 16.285156 13.746094 14.402344 12.429688 12 12.429688 Z M 12 17.570312 C 10.140625 17.570312 8.570312 16.589844 8.570312 15.429688 C 8.570312 14.265625 10.140625 13.285156 12 13.285156 C 13.859375 13.285156 15.429688 14.265625 15.429688 15.429688 C 15.429688 16.589844 13.859375 17.570312 12 17.570312 Z M 12 17.570312"/>
</svg>

<svg xmlns="http://www.w3.org/2000/svg" width="32" height="32" viewBox="0 0 24 24">
    <path d="M19.191 4.336a1.3 1.3 0 0 0 .094-.48V3.43c0-.711-.578-1.285-1.285-1.285h-7.473L9.367.207A.426.426 0 0 0 9 0H7.285a.43.43 0 0 0-.43.43v1.715H6c-.707 0-1.285.574-1.285 1.285v.425c0 .172.035.333.094.48a1.286 1.286 0 0 0-.954 1.235v2.575a1.29 1.29 0 0 0 1.29 1.285h.074l.258 1.285h-.332a.43.43 0 0 0-.43.473l.86 8.57c.019.219.206.387.425.387h.45l.41 3.476c.027.215.21.379.425.379h9.86a.43.43 0 0 0 .425-.383l.383-3.472h.477c.226 0 .414-.18.425-.41l.43-8.57a.417.417 0 0 0-.117-.317.431.431 0 0 0-.313-.133h-.332l.258-1.285h.074c.711 0 1.29-.578 1.29-1.285V5.57c0-.59-.407-1.086-.954-1.234zM7.715.856h1.043l.77 1.289H7.714zM5.57 3.43A.43.43 0 0 1 6 3h12a.43.43 0 0 1 .43.43v.425a.43.43 0 0 1-.43.43H6a.43.43 0 0 1-.43-.43zm11.188 19.715h-9.09l-.356-3h9.782zm1.262-3.86H6.387l-.77-7.715h12.79zm-.372-8.57H6.352L6.094 9.43h11.812zm1.637-2.57a.428.428 0 0 1-.43.425H5.145a.428.428 0 0 1-.43-.425V5.57c0-.234.191-.425.43-.425h13.71c.239 0 .43.19.43.425zm0 0"/>
    <path d="M12 12.43c-2.402 0-4.285 1.316-4.285 3 0 1.68 1.883 3 4.285 3s4.285-1.32 4.285-3c0-1.684-1.883-3-4.285-3zm0 5.14c-1.86 0-3.43-.98-3.43-2.14 0-1.164 1.57-2.145 3.43-2.145s3.43.98 3.43 2.145c0 1.16-1.57 2.14-3.43 2.14zm0 0"/>
</svg>
